Newaita-dark/apps/64/libreoffice-main.svg

<svg height="64" viewBox="0 0 64 64" width="64" xmlns="http://www.w3.org/2000/svg" xmlns:xlink="http://www.w3.org/1999/xlink"><linearGradient id="a" gradientTransform="matrix(.148824 0 0 .125012 -5.260672 26.87757)" gradientUnits="userSpaceOnUse" x1="254" x2="254" y1="233.5" y2="254.666672"><stop offset="0" stop-opacity=".27451"/><stop offset="1" stop-opacity="0"/></linearGradient><linearGradient id="b"><stop offset="0" stop-opacity=".313726"/><stop offset=".222222" stop-opacity=".27451"/><stop offset="1" stop-opacity="0"/></linearGradient><radialGradient id="c" cx="450.908936" cy="189.579361" gradientTransform="matrix(.00000035 -.156265 -.281277 -.0000002 100.953697 127.190665)" gradientUnits="userSpaceOnUse" r="21.166656" xlink:href="#b"/><radialGradient id="d" cx="450.908936" cy="189.579361" gradientTransform="matrix(-.00000035 .156265 .281277 .0000002 -37.447629 -15.054958)" gradientUnits="userSpaceOnUse" r="21.166656" xlink:href="#b"/><radialGradient id="e" cx="450.908936" cy="189.579361" gradientTransform="matrix(-.00000035 -.156265 .281277 -.0000002 -37.447629 127.190665)" gradientUnits="userSpaceOnUse" r="21.166656" xlink:href="#b"/><radialGradient id="f" cx="450.908936" cy="189.579361" gradientTransform="matrix(.00000035 .156265 -.281277 .0000002 100.953693 -15.054959)" gradientUnits="userSpaceOnUse" r="21.166656" xlink:href="#b"/><linearGradient id="g"><stop offset="0" stop-color="#424242"/><stop offset="1" stop-color="#616161"/></linearGradient><linearGradient id="h" gradientUnits="userSpaceOnUse" x1="31.753056" x2="31.753056" xlink:href="#g" y1="56.06789790428" y2="5.79222438278"/><linearGradient id="i" gradientUnits="userSpaceOnUse" x1="31.753056" x2="31.753056" y1="53.42180990428" y2="8.43831238278"><stop offset="0" stop-color="#e0e0e0"/><stop offset="1" stop-color="#eee"/></linearGradient><linearGradient id="j" gradientUnits="userSpaceOnUse" x1="31.75304749994" x2="31.75304749994" xlink:href="#g" y1="56.06785750013" y2="5.79219937524"/><path d="m15.214844 56.066406h33.078125v2.648438h-33.078125zm0 0" fill="url(#a)"/><path d="m48.292969 56.066406h5.289062v-2.644531h-5.289062zm0 0" fill="url(#c)"/><path d="m15.214844 56.066406h-5.292969v2.648438h5.292969zm0 0" fill="url(#d)"/><path d="m15.214844 56.066406h-5.292969v-2.644531h5.292969zm0 0" fill="url(#e)"/><path d="m48.292969 56.066406h5.289062v2.648438h-5.289062zm0 0" fill="url(#f)"/><path d="m13.230469 5.792969c-1.464844 0-2.644531 1.179687-2.644531 2.644531v44.984375c0 1.464844 1.179687 2.644531 2.644531 2.644531h37.046875c1.464844 0 2.644531-1.179687 2.644531-2.644531v-30.109375l-17.519531-17.519531zm27.785156 0 11.90625 11.90625v-9.261719c0-1.464844-1.179687-2.644531-2.644531-2.644531zm0 0" fill="url(#h)"/><path d="m14.554688 8.4375c-.734376 0-1.324219.589844-1.324219 1.324219v42.335937c0 .734375.589843 1.324219 1.324219 1.324219h34.398437c.734375 0 1.324219-.589844 1.324219-1.324219v-27.78125l-15.878906-15.878906zm0 0" fill="url(#i)"/><path d="m23.816406 20.34375c-.734375 0-1.324218.59375-1.324218 1.324219v18.523437c0 .734375.589843 1.324219 1.324218 1.324219h15.875c.734375 0 1.324219-.589844 1.324219-1.324219v-13.429687l-6.949219-6.417969zm12.460938 0 4.738281 4.375v-3.050781c0-.730469-.589844-1.324219-1.324219-1.324219zm0 0" fill="url(#j)"/><path d="m23.816406 20.34375c-.734375 0-1.324218.59375-1.324218 1.324219v.664062c0-.734375.589843-1.324219 1.324218-1.324219h10.25l6.949219 6.414063v-.660156l-6.949219-6.417969zm12.460938 0 .714844.664062h2.699218c.734375 0 1.324219.589844 1.324219 1.324219v-.664062c0-.730469-.589844-1.324219-1.324219-1.324219zm0 0" fill="#fff" fill-opacity=".392157"/><path d="m36.277344 21.339844 4.738281 4.371094v-.992188l-3.664063-3.378906zm-13.785156 18.851562v.992188c0 .734375.589843 1.324218 1.324218 1.324218h15.875c.734375 0 1.324219-.589843 1.324219-1.324218v-.992188c0 .734375-.589844 1.324219-1.324219 1.324219h-15.875c-.734375 0-1.324218-.589844-1.324218-1.324219zm0 0" fill-opacity=".235294"/><path d="m720.049387 615.059407c-22.202606 0-40.035549 17.951043-40.035549 40.035549v560.02529c0 22.202605 17.832943 40.035549 40.035549 40.035549h479.954192c22.202605 0 40.035549-17.832944 40.035549-40.035549v-406.02424l-210.098058-194.036599zm376.735697 0 143.254044 132.270841v-92.235292c0-22.084506-17.832944-40.035549-40.035549-40.035549zm0 0" fill="none" stroke="#212121" stroke-linecap="round" stroke-linejoin="round" stroke-width="11.338583" transform="scale(.0330761)"/><path d="m13.230469 5.792969c-1.464844 0-2.644531 1.179687-2.644531 2.644531v.664062c0-1.46875 1.179687-2.648437 2.644531-2.648437h22.171875l17.519531 17.519531v-.660156l-17.519531-17.519531zm27.785156 0 .660156.660156h8.601563c1.464844 0 2.644531 1.179687 2.644531 2.648437v-.664062c0-1.464844-1.179687-2.644531-2.644531-2.644531zm0 0" fill="#fff" fill-opacity=".392157"/><path d="m14.554688 8.4375c-.734376 0-1.324219.589844-1.324219 1.324219v.992187c0-.734375.589843-1.324218 1.324219-1.324218h19.84375l15.878906 15.878906v-.992188l-15.878906-15.878906zm0 0" fill-opacity=".235294"/><path d="m13.230469 52.148438v.621093c0 .734375.589843 1.324219 1.324219 1.324219h34.398437c.734375 0 1.324219-.589844 1.324219-1.324219v-.621093c0 .730468-.589844 1.320312-1.324219 1.320312h-34.398437c-.734376 0-1.324219-.589844-1.324219-1.320312zm0 0" fill="#fff" fill-opacity=".392157"/><path d="m440.036742 255.093763c-22.202605 0-40.035549 17.832944-40.035549 40.035549v1279.956578c0 22.202605 17.832944 40.035549 40.035549 40.035549h1039.979482c22.202605 0 40.035549-17.832944 40.035549-40.035549v-839.919836l-480.072291-480.072291zm0 0" fill="none" stroke="#212121" stroke-linecap="round" stroke-linejoin="round" stroke-width="11.338583" transform="scale(.0330761)"/><path d="m41.015625 5.792969 11.90625 11.90625v-.644531l-11.261719-11.261719zm-30.429687 46.984375v.644531c0 1.464844 1.179687 2.644531 2.644531 2.644531h37.046875c1.464844 0 2.644531-1.179687 2.644531-2.644531v-.644531c0 1.464844-1.179687 2.644531-2.644531 2.644531h-37.046875c-1.464844 0-2.644531-1.179687-2.644531-2.644531zm0 0" fill-opacity=".235294"/><path d="m400.001193 175.140764c-44.287112 0-79.952999 35.665888-79.952999 79.952999v1360.027676c0 44.287112 35.665887 79.952999 79.952999 79.952999h1120.05058c44.287111 0 79.952999-35.665887 79.952999-79.952999v-910.306819l-529.673856-529.673856zm840.037935 0 359.965644 359.965644v-280.012645c0-44.287111-35.665888-79.952999-79.952999-79.952999zm0 0" fill="none" stroke="#212121" stroke-linecap="round" stroke-linejoin="round" stroke-width="11.338583" transform="scale(.0330761)"/></svg>

<?xml version="1.0" encoding="UTF-8"?>
<svg xmlns="http://www.w3.org/2000/svg" xmlns:xlink="http://www.w3.org/1999/xlink" width="64px" height="64px" viewBox="0 0 64 64" version="1.1">
<defs>
<linearGradient id="linear0" gradientUnits="userSpaceOnUse" x1="254" y1="233.5" x2="254" y2="254.666672" gradientTransform="matrix(0.148824,0,0,0.125012,-5.260672,26.87757)">
<stop offset="0" style="stop-color:rgb(0%,0%,0%);stop-opacity:0.27451;"/>
<stop offset="1" style="stop-color:rgb(0%,0%,0%);stop-opacity:0;"/>
</linearGradient>
<radialGradient id="radial0" gradientUnits="userSpaceOnUse" cx="450.908936" cy="189.579361" fx="450.908936" fy="189.579361" r="21.166656" gradientTransform="matrix(0.000000348341,-0.156265,-0.281277,-0.000000203077,100.953697,127.190665)">
<stop offset="0" style="stop-color:rgb(0%,0%,0%);stop-opacity:0.313726;"/>
<stop offset="0.222222" style="stop-color:rgb(0%,0%,0%);stop-opacity:0.27451;"/>
<stop offset="1" style="stop-color:rgb(0%,0%,0%);stop-opacity:0;"/>
</radialGradient>
<radialGradient id="radial1" gradientUnits="userSpaceOnUse" cx="450.908936" cy="189.579361" fx="450.908936" fy="189.579361" r="21.166656" gradientTransform="matrix(-0.000000348341,0.156265,0.281277,0.000000203077,-37.447629,-15.054958)">
<stop offset="0" style="stop-color:rgb(0%,0%,0%);stop-opacity:0.313726;"/>
<stop offset="0.222222" style="stop-color:rgb(0%,0%,0%);stop-opacity:0.27451;"/>
<stop offset="1" style="stop-color:rgb(0%,0%,0%);stop-opacity:0;"/>
</radialGradient>
<radialGradient id="radial2" gradientUnits="userSpaceOnUse" cx="450.908936" cy="189.579361" fx="450.908936" fy="189.579361" r="21.166656" gradientTransform="matrix(-0.000000348341,-0.156265,0.281277,-0.000000203077,-37.447629,127.190665)">
<stop offset="0" style="stop-color:rgb(0%,0%,0%);stop-opacity:0.313726;"/>
<stop offset="0.222222" style="stop-color:rgb(0%,0%,0%);stop-opacity:0.27451;"/>
<stop offset="1" style="stop-color:rgb(0%,0%,0%);stop-opacity:0;"/>
</radialGradient>
<radialGradient id="radial3" gradientUnits="userSpaceOnUse" cx="450.908936" cy="189.579361" fx="450.908936" fy="189.579361" r="21.166656" gradientTransform="matrix(0.000000348341,0.156265,-0.281277,0.000000203077,100.953693,-15.054959)">
<stop offset="0" style="stop-color:rgb(0%,0%,0%);stop-opacity:0.313726;"/>
<stop offset="0.222222" style="stop-color:rgb(0%,0%,0%);stop-opacity:0.27451;"/>
<stop offset="1" style="stop-color:rgb(0%,0%,0%);stop-opacity:0;"/>
</radialGradient>
<linearGradient id="linear1" gradientUnits="userSpaceOnUse" x1="254" y1="233.5" x2="254" y2="-168.666672" gradientTransform="matrix(0.125012,0,0,0.125012,0,26.877566)">
<stop offset="0" style="stop-color:rgb(87.843138%,87.843138%,87.843138%);stop-opacity:1;"/>
<stop offset="1" style="stop-color:rgb(93.333334%,93.333334%,93.333334%);stop-opacity:1;"/>
</linearGradient>
<linearGradient id="linear2" gradientUnits="userSpaceOnUse" x1="413.712219" y1="-474.701691" x2="413.712219" y2="-72.535034" gradientTransform="matrix(0.125012,0,0,0.125012,0,26.877566)">
<stop offset="0" style="stop-color:rgb(38.039216%,38.039216%,38.039216%);stop-opacity:1;"/>
<stop offset="1" style="stop-color:rgb(45.882353%,45.882353%,45.882353%);stop-opacity:1;"/>
</linearGradient>
<linearGradient id="linear3" gradientUnits="userSpaceOnUse" x1="248.708328" y1="101.208344" x2="248.708328" y2="-300.958313" gradientTransform="matrix(0.125012,0,0,0.125012,0.661522,43.4156)">
<stop offset="0" style="stop-color:rgb(38.039216%,38.039216%,38.039216%);stop-opacity:1;"/>
<stop offset="1" style="stop-color:rgb(45.882353%,45.882353%,45.882353%);stop-opacity:1;"/>
</linearGradient>
</defs>
<g id="surface1">
<path style=" stroke:none;fill-rule:nonzero;fill:url(#linear0);" d="M 15.214844 56.066406 L 48.292969 56.066406 L 48.292969 58.714844 L 15.214844 58.714844 Z M 15.214844 56.066406 "/>
<path style=" stroke:none;fill-rule:nonzero;fill:url(#radial0);" d="M 48.292969 56.066406 L 53.582031 56.066406 L 53.582031 53.421875 L 48.292969 53.421875 Z M 48.292969 56.066406 "/>
<path style=" stroke:none;fill-rule:nonzero;fill:url(#radial1);" d="M 15.214844 56.066406 L 9.921875 56.066406 L 9.921875 58.714844 L 15.214844 58.714844 Z M 15.214844 56.066406 "/>
<path style=" stroke:none;fill-rule:nonzero;fill:url(#radial2);" d="M 15.214844 56.066406 L 9.921875 56.066406 L 9.921875 53.421875 L 15.214844 53.421875 Z M 15.214844 56.066406 "/>
<path style=" stroke:none;fill-rule:nonzero;fill:url(#radial3);" d="M 48.292969 56.066406 L 53.582031 56.066406 L 53.582031 58.714844 L 48.292969 58.714844 Z M 48.292969 56.066406 "/>
<path style=" stroke:none;fill-rule:nonzero;fill:url(#linear1);" d="M 39.8125 5.792969 L 13.230469 5.792969 C 11.765625 5.792969 10.585938 6.972656 10.585938 8.4375 L 10.585938 53.421875 C 10.585938 54.886719 11.765625 56.066406 13.230469 56.066406 L 50.277344 56.066406 C 51.742188 56.066406 52.921875 54.886719 52.921875 53.421875 L 52.921875 17.808594 Z M 39.8125 5.792969 "/>
<path style=" stroke:none;fill-rule:nonzero;fill:url(#linear2);" d="M 39.8125 5.792969 L 52.921875 17.808594 L 52.921875 8.4375 C 52.921875 6.972656 51.742188 5.792969 50.277344 5.792969 Z M 39.8125 5.792969 "/>
<path style=" stroke:none;fill-rule:nonzero;fill:rgb(0%,0%,0%);fill-opacity:0.235294;" d="M 10.585938 52.761719 L 10.585938 53.421875 C 10.585938 54.886719 11.765625 56.066406 13.230469 56.066406 L 50.277344 56.066406 C 51.742188 56.066406 52.921875 54.886719 52.921875 53.421875 L 52.921875 52.761719 C 52.921875 54.226562 51.742188 55.40625 50.277344 55.40625 L 13.230469 55.40625 C 11.765625 55.40625 10.585938 54.226562 10.585938 52.761719 Z M 10.585938 52.761719 "/>
<path style=" stroke:none;fill-rule:nonzero;fill:rgb(100%,100%,100%);fill-opacity:1;" d="M 13.230469 5.792969 C 11.765625 5.792969 10.585938 6.972656 10.585938 8.4375 L 10.585938 9.761719 C 10.585938 8.296875 11.765625 7.113281 13.230469 7.113281 L 39.8125 7.113281 L 52.921875 19.132812 L 52.921875 17.808594 L 39.8125 5.792969 Z M 13.230469 5.792969 "/>
<path style=" stroke:none;fill-rule:nonzero;fill:rgb(100%,100%,100%);fill-opacity:0.392157;" d="M 39.8125 5.792969 L 41.253906 7.113281 L 50.277344 7.113281 C 51.742188 7.113281 52.921875 8.296875 52.921875 9.761719 L 52.921875 8.4375 C 52.921875 6.972656 51.742188 5.792969 50.277344 5.792969 Z M 39.8125 5.792969 "/>
<path style=" stroke:none;fill-rule:nonzero;fill:rgb(0%,0%,0%);fill-opacity:0.235294;" d="M 39.8125 5.792969 L 52.921875 17.808594 L 52.921875 16.707031 L 41.015625 5.792969 Z M 39.8125 5.792969 "/>
<path style="fill:none;stroke-width:11.338583;stroke-linecap:round;stroke-linejoin:round;stroke:rgb(12.941177%,12.941177%,12.941177%);stroke-opacity:1;stroke-miterlimit:4;" d="M 1203.664647 175.140764 L 400.001193 175.140764 C 355.714081 175.140764 320.048194 210.806652 320.048194 255.093763 L 320.048194 1615.121439 C 320.048194 1659.408551 355.714081 1695.074438 400.001193 1695.074438 L 1520.051773 1695.074438 C 1564.338884 1695.074438 1600.004772 1659.408551 1600.004772 1615.121439 L 1600.004772 538.413179 Z M 1203.664647 175.140764 " transform="matrix(0.0330761,0,0,0.0330761,0,0)"/>
<path style="fill:none;stroke-width:3;stroke-linecap:round;stroke-linejoin:round;stroke:rgb(12.941177%,12.941177%,12.941177%);stroke-opacity:1;stroke-miterlimit:4;" d="M 318.469588 -168.660675 L 423.334574 -72.544854 L 423.334574 -147.506445 C 423.334574 -159.224076 413.897975 -168.660675 402.180344 -168.660675 Z M 318.469588 -168.660675 " transform="matrix(0.125012,0,0,0.125012,0,26.877566)"/>
<path style=" stroke:none;fill-rule:nonzero;fill:url(#linear3);" d="M 23.816406 20.34375 C 23.082031 20.34375 22.492188 20.9375 22.492188 21.667969 L 22.492188 40.191406 C 22.492188 40.925781 23.082031 41.515625 23.816406 41.515625 L 39.691406 41.515625 C 40.425781 41.515625 41.015625 40.925781 41.015625 40.191406 L 41.015625 26.761719 L 34.066406 20.34375 Z M 36.277344 20.34375 L 41.015625 24.71875 L 41.015625 21.667969 C 41.015625 20.9375 40.425781 20.34375 39.691406 20.34375 Z M 36.277344 20.34375 "/>
<path style=" stroke:none;fill-rule:nonzero;fill:rgb(100%,100%,100%);fill-opacity:0.392157;" d="M 23.816406 20.34375 C 23.082031 20.34375 22.492188 20.9375 22.492188 21.667969 L 22.492188 22.332031 C 22.492188 21.597656 23.082031 21.007812 23.816406 21.007812 L 34.066406 21.007812 L 41.015625 27.421875 L 41.015625 26.761719 L 34.066406 20.34375 Z M 36.277344 20.34375 L 36.992188 21.007812 L 39.691406 21.007812 C 40.425781 21.007812 41.015625 21.597656 41.015625 22.332031 L 41.015625 21.667969 C 41.015625 20.9375 40.425781 20.34375 39.691406 20.34375 Z M 36.277344 20.34375 "/>
<path style=" stroke:none;fill-rule:nonzero;fill:rgb(0%,0%,0%);fill-opacity:0.235294;" d="M 36.277344 21.339844 L 41.015625 25.710938 L 41.015625 24.71875 L 37.351562 21.339844 Z M 22.492188 40.191406 L 22.492188 41.183594 C 22.492188 41.917969 23.082031 42.507812 23.816406 42.507812 L 39.691406 42.507812 C 40.425781 42.507812 41.015625 41.917969 41.015625 41.183594 L 41.015625 40.191406 C 41.015625 40.925781 40.425781 41.515625 39.691406 41.515625 L 23.816406 41.515625 C 23.082031 41.515625 22.492188 40.925781 22.492188 40.191406 Z M 22.492188 40.191406 "/>
<path style="fill:none;stroke-width:11.338583;stroke-linecap:round;stroke-linejoin:round;stroke:rgb(12.941177%,12.941177%,12.941177%);stroke-opacity:1;stroke-miterlimit:4;" d="M 720.049387 615.059407 C 697.846781 615.059407 680.013838 633.01045 680.013838 655.094956 L 680.013838 1215.120246 C 680.013838 1237.322851 697.846781 1255.155795 720.049387 1255.155795 L 1200.003579 1255.155795 C 1222.206184 1255.155795 1240.039128 1237.322851 1240.039128 1215.120246 L 1240.039128 809.096006 L 1029.94107 615.059407 Z M 1096.785084 615.059407 L 1240.039128 747.330248 L 1240.039128 655.094956 C 1240.039128 633.01045 1222.206184 615.059407 1200.003579 615.059407 Z M 1096.785084 615.059407 " transform="matrix(0.0330761,0,0,0.0330761,0,0)"/>
</g>
</svg>
